X: 2754
T: Banks Of The Ilen, The
R: reel
M: 4/4
K: Dmajor
AG|:FDFA df f2|dfef dcAF|EDFA df f2|dcAF G3E|
EDFA df f2|dfef dcAF|EDFA df f2|1 dcAF G3A:|2 dcAF G3g||
|:f3a g3e|a3g fdde|f3a g2 fg|afdf dg g2|
af f2 ge e2|f2 ef dcAF|EDFA dfec|1 dcAF G3g:|2 dcAF G3A||

